shared/images/iconfont/28-kb-iconfont-emoji-16.svg

<?xml version="1.0" encoding="UTF-8"?>
<svg width="16px" height="16px" viewBox="0 0 16 16" version="1.1" xmlns="http://www.w3.org/2000/svg" xmlns:xlink="http://www.w3.org/1999/xlink">
    <!-- Generator: sketchtool 57.1 (101010) - https://sketch.com -->
    <title>D41F75F4-45A6-43C2-AEA2-167E2A0DFF46</title>
    <desc>Created with sketchtool.</desc>
    <g id="Symbols" stroke="none" stroke-width="1" fill="none" fill-rule="evenodd">
        <g id="28-kb-iconfont-emoji-16">
            <g>
                <rect id="icon-area" opacity="0" x="0" y="0" width="16" height="16"></rect>
                <path d="M8,0 C12.418278,0 16,3.581722 16,8 C16,12.418278 12.418278,16 8,16 C3.581722,16 2.27373675e-13,12.418278 2.27373675e-13,8 C2.27373675e-13,3.581722 3.581722,0 8,0 Z M8,2 C4.6862915,2 2,4.6862915 2,8 C2,11.3137085 4.6862915,14 8,14 C11.3136887,14 14,11.3136887 14,8 C14,4.6862915 11.3137085,2 8,2 Z M11.5139906,9.5265237 C11.7437902,9.59526618 11.9214527,9.78931977 11.9797804,10.0352872 C12.0381081,10.2812546 11.9681964,10.5415848 11.7964881,10.7178127 C9.67103912,12.874164 6.32559246,12.874164 4.20014346,10.7178127 C3.93777838,10.4447352 3.93270481,9.99763063 4.18879698,9.71791145 C4.44488915,9.43819227 4.86567301,9.43123313 5.12983492,9.70234809 C6.73770854,11.3237665 9.25892304,11.3237665 10.8667967,9.70234809 C11.037337,9.52484452 11.284191,9.45778122 11.5139906,9.5265237 Z M6,6 C6.55228475,6 7,6.44771525 7,7 C7,7.55228475 6.55228475,8 6,8 C5.44771525,8 5,7.55228475 5,7 C5.00002577,6.44772593 5.44772593,6.00002577 6,6 Z M9.99999394,6 C10.5515812,6 10.998731,6.44714983 10.998731,6.99873711 C10.9987053,7.55031372 10.5515706,7.99744847 9.99999394,7.99747421 C9.44840667,7.99747421 9.00125684,7.55032438 9.00125684,6.99873711 C9.00125684,6.44714983 9.44840667,6 9.99999394,6 Z" id="Combined-Shape" fill="#000000"></path>
            </g>
        </g>
    </g>
</svg>

<svg xmlns="http://www.w3.org/2000/svg" width="16" height="16" viewBox="0 0 16 16">
    <path fill="#000" fill-rule="evenodd" d="M8 0a8 8 0 1 1 0 16A8 8 0 0 1 8 0zm0 2a6 6 0 1 0 0 12A6 6 0 0 0 8 2zm3.514 7.527a.69.69 0 0 1 .466.508.738.738 0 0 1-.184.683c-2.125 2.156-5.47 2.156-7.596 0a.74.74 0 0 1-.011-1 .64.64 0 0 1 .94-.016c1.609 1.622 4.13 1.622 5.738 0a.64.64 0 0 1 .647-.175zM6 6a1 1 0 1 1 0 2 1 1 0 0 1 0-2zm4 0a.999.999 0 1 1 0 1.997A.999.999 0 0 1 10 6z"/>
</svg>
